!!!OTL: HERR OLOFF REITET SO SPAET UND WEIT
!!!ARE: Europa, Mitteleuropa, Deutschland, Norddeutschland
!!!SCT: Z0008
!!!YEM: Copyright 1995, estate of Helmut Schaffrath.
**kern
*ICvox
*Ivox
!! Mixed meters:  6/8; 4/4
*M6/8
*k[b-]
*F:
{8c
=1
8.a
16b-
8g
8f
8c
8f
=2
8.a
16b-
8g
4f}
{8g
=3
8a
8bn
8cc
4cc
8dd
=4
8.ee
16ff
8dd
4cc}
{8cc
=5
*M4/4
8cc
8a
8a
8f
8ff
8cc
8cc
8a
=6
*M6/8
8aa
8ff
8ff
8cc
8cc
8b-}
=7
{8b-
8b-
=8
*M4/4
8b-
8g
8g
8e
8ee
8b-
8b-
8g
=9
*M6/8
8gg
8ee
8ee
8b-
8b-
8a}
=10
{8a
8cc
=11
*M4/4
8ff
8cc
8cc
8ff
8dd
8b-
8b-
8dd
=12
8.cc
16dd
8cc
8b-
4.a}
{8cc
=13
8ff
8cc
8cc
8a
8dd
8b-
8b-
8g
=14
8.cc
16dd
8e
8e
4f
8r}
==
!!!AGN: Sagen - Lied, Romanze
!!!ONB: ESAC (Essen Associative Code) Database: ZUCCAL
!!!AMT: irregular
!!!AIN: vox
!!!EED: Helmut Schaffrath
!!!EEV: 1.0
*-
